X:978
T:The Boys of Ballinafad
N:"Collected by J.O'Neill"
B:O'Neill's 978
Z:Transcribed by Dan G. Petersen, dangp@post6.tele.dk
M:6/8
L:1/8
K:A
f|ecA AcA|ecA F2A|EFA ABc|edc B2f|
ecA AcA|F2A E2c|d2f ecA|BAA A2:|
f|ecA Ace|fde fga|ecA BAGA|BGE Ecd|
ecA Ace|fde fga|edc BAB|cAA A2:|
